libs/ui/packages/crypto-icons/src/svg/IGNIS.svg

<svg width="24" height="24" viewBox="0 0 24 24" fill="none">
<path d="M11.109 4.5C12.2475 5.16525 13.3185 5.9355 14.4465 6.61875L10.2885 13.872C9.7365 12.9038 9.219 11.916 8.67375 10.9425C9.459 8.78625 10.356 6.6675 11.109 4.5ZM7.5 19.5C9.85425 15.2183 12.3 10.9837 14.628 6.69075C15.2505 7.7835 15.8737 8.8755 16.5 9.96825C14.6955 13.1423 12.8775 16.3088 11.0872 19.4895C9.891 19.4895 8.69625 19.4745 7.5 19.5ZM11.3115 19.4827C12.309 17.7765 13.2487 16.0402 14.259 14.3415C14.8612 15.1117 15.4725 15.8775 16.0702 16.6515C14.4897 17.6048 12.9034 18.5485 11.3115 19.4827Z" fill="#F9C011"/>
<path d="M11.109 4.5C12.2475 5.16525 13.3185 5.9355 14.4465 6.61875L10.2885 13.872C9.7365 12.9038 9.219 11.916 8.67375 10.9425C9.459 8.78625 10.356 6.6675 11.109 4.5ZM7.5 19.5C9.85425 15.2183 12.3 10.9837 14.628 6.69075C15.2505 7.7835 15.8737 8.8755 16.5 9.96825C14.6955 13.1423 12.8775 16.3088 11.0872 19.4895C9.891 19.4895 8.69625 19.4745 7.5 19.5ZM11.3115 19.4827C12.309 17.7765 13.2487 16.0402 14.259 14.3415C14.8612 15.1117 15.4725 15.8775 16.0702 16.6515C14.4897 17.6048 12.9034 18.5485 11.3115 19.4827Z" fill="#F9C011"/>
</svg>

<svg width="24" height="24" viewBox="0 0 24 24" fill="none"><path fill="#f9c011" d="M11.109 4.5c1.139.665 2.21 1.436 3.338 2.119l-4.158 7.253c-.553-.968-1.07-1.956-1.615-2.93.785-2.156 1.682-4.274 2.435-6.442M7.5 19.5c2.354-4.282 4.8-8.516 7.128-12.81q.934 1.64 1.872 3.278c-1.805 3.174-3.623 6.34-5.413 9.522-1.196 0-2.39-.015-3.587.01m3.812-.017c.997-1.707 1.937-3.443 2.947-5.142.602.77 1.213 1.537 1.811 2.31a460 460 0 0 1-4.758 2.832"/><path fill="#f9c011" d="M11.109 4.5c1.139.665 2.21 1.436 3.338 2.119l-4.158 7.253c-.553-.968-1.07-1.956-1.615-2.93.785-2.156 1.682-4.274 2.435-6.442M7.5 19.5c2.354-4.282 4.8-8.516 7.128-12.81q.934 1.64 1.872 3.278c-1.805 3.174-3.623 6.34-5.413 9.522-1.196 0-2.39-.015-3.587.01m3.812-.017c.997-1.707 1.937-3.443 2.947-5.142.602.77 1.213 1.537 1.811 2.31a460 460 0 0 1-4.758 2.832"/></svg>
